X:1
T:Ben venga il pastor
T:Madalena Casulana
T:Source : Secondo libro de madrigali a quattro voci---Venetia---G.Scotto---1570. Editor : André Vierendeels (02/09/17).
T:Ben venga il pastor
T:Prima parte
T:©
T:©
T:©
C:Madalena Casulana
Z:©
%%score [ 1 2 3 4 ]
L:1/8
Q:1/4=120
M:2/2
K:C
V:1 treble nm="Soprano" snm="S"
V:2 treble nm="Alto" snm="A"
V:3 treble-8 nm="Tenor" snm="T"
V:4 bass nm="Bass" snm="B"
V:1
 G4 d4 | B2 c4 B2 | A4 B4 | z8 | z2 G2 A2 G2 | ^F4 G2 B2 | B3 B A2 B2 | c4 A2 c2- | c2 B2 A4 | %9
w: Ben ven-|ga il pa-|stor mio||anz' il mio|so- le, di-|cea sul va- go|lit' al fin|_ del gior-|
 A4 d4- | d4 B4 | B4 B2 d2 | ^c4 d4 | z2 d2 e4 | d4 z2 d2- | d2 d2 c3 c | c2 A2 c4 | A2 A2 cBcd | %18
w: no, con|_ so-|a- vi pa-|ro- le,|e me-|ri am-|* bi pie- ni|di de- si-|o, vo- la _ _ _|
 e4 d2 c2- | c2 B2 A4 |[M:3/4] B2 d2 B2 | d2 e3 d | c2 B2 A2 | c2 c4 |[M:2/2] c4 z2 A2 | %25
w: _ van d'o-|* hn'in- tor-|no Lie- ti|scher- zand' i|par- go- lett'|a- mo-|ri, e'in|
 A3 A B2 c2 | A4 G2 G2- | G2 G2 G4 | G8 |] %29
w: su le lab- bia|lor s'u- ni-|* ro'i co-|ri.|
V:2
 z4 D4 | G2 E2 F2 G2 | ^F4 G4 | z8 | z2 D2 A,2 B,2 | A,4 G,2 G2 | G3 G ^F2 G2 | A4 F2 A2- | %8
w: Ben|ven- ga il pa-|stor mio||anz' il mio|so- le, di-|cea sul va- go|lit' al fin|
 A2 G2 E4 | ^F4 A4- | A4 D4 |"^-natural" E4 E2 F2 | E4 A4 | z2 B2 c4 | B4 z2 B2- | B2 A2 A3 A | %16
w: _ del gior-|no, con|_ so-|a- vi pa-|ro- le,|e me-|ri am-|* bi pie- ni|
 G2 F2 G4 | C2 c2 AGAB | c2 BA B2 A2 | A2 G4 ^F2 |[M:3/4] G2 B2 G2 | B2 c3 B | A2 G2 F2 | A2 A4 | %24
w: di de- si-|o, vo- la _ _ _|_ _ _ _ van|d'o- gng'in- tor-|no Lie- ti|scher- zand' i|par- go- lett'|a- mo-|
[M:2/2] A4 z2 F2 | ^F3 F G2 E2 | F4 E2 E2- | E2 E2 D4 | E8 |] %29
w: ri, e'in|su le lab- bia|lor s'u- ni-|* ro'i co-|ri.|
V:3
 z8 | z8 | d4 d2 e2 | d2 c2 B2 d2 | c2 B2 d4 | d4 z2 d2 | d3 d d2 d2 | f4 c2 f2- | fe d3 c/B/ ^c2 | %9
w: ||Ben ven- ga|la mia nimph' anz'|il mio so-|le, di-|cea sul va- go|lit' al fin|_ del gior- * * *|
 d4 ^f4- | f4 g4 | ^g4 g2 a2 | a4 ^f2 f2- | f2 g2 z4 | z4 z2 g2- | g2 f2 f3 f | g2 c2 e4 | %17
w: no, con|_ so-|a- vi pa-|ro- le Li-|* dia|am-|* bi pie- ni|di de- si-|
 f4 z2 f2 | cdef g2 a2 | f2 g2 d4 |[M:3/4] G2 g2 d2 | g2 g3 g | e3 d c2 | f4 e2 |[M:2/2] f4 z2 c2 | %25
w: o, vo-|la _ _ _ _ van|d'o- gn'in- tor-|ni Lie- ti|scher- zand' i|par- go- lett'|a- mo-|ri, e'in|
 d3 d d2 g2 | c2 c2 c4 | c2 c3 B/A/ B2 | c8 |] %29
w: su le lab- bia|lor s'u- ni-|ro'i co- * * *|ri.|
V:4
 z8 | z8 | z4 G,4 | G,2 A,2 G,2 F,2 | E,2 G,2 ^F,2 G,2 | D,4 G,2 G,2 | G,3 G, D,2 G,2 | %7
w: ||Ben|ven- ga la mia|nimph' anz' il mio|so- le, di-|cea sil va- go|
 F,4 F,2 F,2- | F,2 G,2 A,4 | D,4 D,4- | D,4 G,4 | E,4 E,2 D,2 | A,4 D,2 D2- | D2 G,2 z4 | %14
w: lit' al fin|_ del gior-|no, con|_ so-|a- vi pa-|ro- le Li-|* dia|
 z4 z2 G,2- | G,2 D,2 F,3 F, | E,2 F,2 C,4 | F,4 z4 | z8 | z8 |[M:3/4] z2 G,2 G,2 | G,2 C3 G, | %22
w: am-|* bi pie- ni|di de- si-|o,|||Lie- ti|scher- zand' i|
 A,2 E,2 F,2 | F,2 C4 |[M:2/2] F,4 z2 F,2 | D,3 D, G,2 C,2 | F,4 C,2 C,2- | C,2 C,2 G,4 | C,8 |] %29
w: pa- go- lett'|a- mo-|ri e'in|su le lab- bia|lor s'u- ni|_ ro'i co-|ri.|

